brand-assets/vite+/vite+-icon-color-dark.svg

<svg width="82" height="47" viewBox="0 0 82 47" fill="none" xmlns="http://www.w3.org/2000/svg">
<path d="M40.1554 45.7052C39.492 46.5495 38.1351 46.08 38.1351 45.0073V34.7052C38.1351 33.4559 37.1227 32.4436 35.8735 32.4436H24.4986C23.5789 32.4436 23.0426 31.4032 23.5789 30.6558L31.0573 20.1857C32.1278 18.6887 31.0573 16.608 29.2157 16.608H15.4501C14.5303 16.608 13.994 15.5677 14.5303 14.8203L24.2251 1.24632C24.4383 0.949081 24.7808 0.772461 25.1448 0.772461H54.0352C54.9549 0.772461 55.4913 1.8128 54.955 2.56021L47.4766 13.0304C46.4061 14.5273 47.4766 16.608 49.3182 16.608H60.693C61.6364 16.608 62.1663 17.6957 61.5825 18.4388L40.1576 45.7074L40.1554 45.7052Z" fill="#6553FF"/>
<mask id="mask0_2021_10759" style="mask-type:alpha" maskUnits="userSpaceOnUse" x="14" y="0" width="48" height="47">
<path d="M40.1554 45.7052C39.492 46.5495 38.1351 46.08 38.1351 45.0073V34.7052C38.1351 33.4559 37.1227 32.4436 35.8735 32.4436H24.4986C23.5789 32.4436 23.0426 31.4032 23.5789 30.6558L31.0573 20.1857C32.1278 18.6887 31.0573 16.608 29.2157 16.608H15.4501C14.5303 16.608 13.994 15.5677 14.5303 14.8203L24.2251 1.24632C24.4383 0.949081 24.7808 0.772461 25.1448 0.772461H54.0352C54.9549 0.772461 55.4913 1.8128 54.955 2.56021L47.4766 13.0304C46.4061 14.5273 47.4766 16.608 49.3182 16.608H60.693C61.6364 16.608 62.1663 17.6957 61.5825 18.4388L40.1576 45.7074L40.1554 45.7052Z" fill="#833BFF"/>
</mask>
<g mask="url(#mask0_2021_10759)">
<g filter="url(#filter0_f_2021_10759)">
<ellipse cx="5.50736" cy="14.7025" rx="5.50736" ry="14.7025" transform="matrix(0.00324134 0.999995 0.999995 -0.00324134 9.74414 32.2842)" fill="#EEE6FF"/>
</g>
<g filter="url(#filter1_f_2021_10759)">
<ellipse cx="10.3982" cy="29.8478" rx="10.3982" ry="29.8478" transform="matrix(0.00324134 0.999995 0.999995 -0.00324134 -25.1108 8.65405)" fill="#EEE6FF"/>
</g>
<g filter="url(#filter2_f_2021_10759)">
<ellipse cx="5.50736" cy="30.4831" rx="5.50736" ry="30.4831" transform="matrix(0.00324134 0.999995 0.999995 -0.00324134 -26.2505 12.092)" fill="#560CFF"/>
</g>
<g filter="url(#filter3_f_2021_10759)">
<ellipse cx="5.50736" cy="30.5949" rx="5.50736" ry="30.5949" transform="matrix(0.00324134 0.999995 0.999995 -0.00324134 -21.6548 30.0892)" fill="#560CFF"/>
</g>
<g filter="url(#filter4_f_2021_10759)">
<ellipse cx="5.50736" cy="30.5949" rx="5.50736" ry="30.5949" transform="matrix(0.00324134 0.999995 0.999995 -0.00324134 -20.1235 31.2379)" fill="#560CFF"/>
</g>
<g filter="url(#filter5_f_2021_10759)">
<ellipse cx="14.0698" cy="22.0757" rx="14.0698" ry="22.0757" transform="matrix(0.0584509 -0.99829 -0.99829 -0.0584509 88.5522 27.6324)" fill="#EEE6FF"/>
</g>
<g filter="url(#filter6_f_2021_10759)">
<ellipse cx="3.46993" cy="21.4983" rx="3.46993" ry="21.4983" transform="matrix(-0.0172986 -0.99985 -0.99985 0.0172986 89.9976 18.8328)" fill="#560CFF"/>
</g>
<g filter="url(#filter7_f_2021_10759)">
<ellipse cx="3.46993" cy="21.4983" rx="3.46993" ry="21.4983" transform="matrix(-0.0172986 -0.99985 -0.99985 0.0172986 89.9976 18.8328)" fill="#560CFF"/>
</g>
<g filter="url(#filter8_f_2021_10759)">
<ellipse cx="14.5991" cy="9.74276" rx="4.40613" ry="29.1042" transform="rotate(39.5103 14.5991 9.74276)" fill="#560CFF"/>
</g>
<g filter="url(#filter9_f_2021_10759)">
<ellipse cx="61.7299" cy="-5.31867" rx="4.40613" ry="29.1042" transform="rotate(37.8923 61.7299 -5.31867)" fill="#560CFF"/>
</g>
<g filter="url(#filter10_f_2021_10759)">
<ellipse cx="55.0818" cy="10.5902" rx="8.27999" ry="12.491" transform="rotate(37.8923 55.0818 10.5902)" fill="#00FFD0"/>
</g>
<g filter="url(#filter11_f_2021_10759)">
<ellipse cx="12.3339" cy="39.0997" rx="4.40613" ry="29.1042" transform="rotate(37.8923 12.3339 39.0997)" fill="#560CFF"/>
</g>
<g filter="url(#filter12_f_2021_10759)">
<ellipse cx="12.3339" cy="39.0997" rx="4.40613" ry="29.1042" transform="rotate(37.8923 12.3339 39.0997)" fill="#560CFF"/>
</g>
<g filter="url(#filter13_f_2021_10759)">
<ellipse cx="49.6419" cy="30.5062" rx="4.68195" ry="29.1042" transform="rotate(37.8923 49.6419 30.5062)" fill="#560CFF"/>
</g>
<g filter="url(#filter14_f_2021_10759)">
<ellipse cx="54.115" cy="33.7697" rx="8.04096" ry="21.0634" transform="rotate(37.8923 54.115 33.7697)" fill="#00FFD0"/>
</g>
</g>
<path d="M6.91924 0C-2.27946 13.1669 -2.33332 33.5763 6.91924 46.7906H13.1343C3.88388 33.5763 3.93774 13.1669 13.1343 0H6.91924Z" fill="#08060E"/>
<path d="M70.0453 23.3953H76.2625C76.2582 14.9894 73.9466 6.58773 69.343 0H63.1279C67.7294 6.58773 70.0431 14.9894 70.0474 23.3953H70.0453Z" fill="#08060E"/>
<path d="M81.0151 34.8775H74.7807C75.2395 33.1541 75.595 31.394 75.8406 29.6103H69.6234C69.3778 31.3919 69.0223 33.1519 68.5635 34.8775H62.3204C61.7495 37.021 61.0149 39.1041 60.1123 41.0947H66.3554C65.4463 43.1003 64.3734 45.0111 63.1261 46.7927H69.3412C70.5863 45.0133 71.6613 43.1003 72.5704 41.0947H78.8048C79.7075 39.1041 80.4421 37.021 81.013 34.8775H81.0151Z" fill="#08060E"/>
<defs>
<filter id="filter0_f_2021_10759" x="-5.55449" y="16.9197" width="60.0382" height="41.6485" filterUnits="userSpaceOnUse" color-interpolation-filters="sRGB">
<feFlood flood-opacity="0" result="BackgroundImageFix"/>
<feBlend mode="normal" in="SourceGraphic" in2="BackgroundImageFix" result="shape"/>
<feGaussianBlur stdDeviation="7.65835" result="effect1_foregroundBlur_2021_10759"/>
</filter>
<filter id="filter1_f_2021_10759" x="-40.3938" y="-6.75988" width="90.3287" height="51.4307" filterUnits="userSpaceOnUse" color-interpolation-filters="sRGB">
<feFlood flood-opacity="0" result="BackgroundImageFix"/>
<feBlend mode="normal" in="SourceGraphic" in2="BackgroundImageFix" result="shape"/>
<feGaussianBlur stdDeviation="7.65835" result="effect1_foregroundBlur_2021_10759"/>
</filter>
<filter id="filter2_f_2021_10759" x="-35.4224" y="2.80229" width="79.3459" height="29.3965" filterUnits="userSpaceOnUse" color-interpolation-filters="sRGB">
<feFlood flood-opacity="0" result="BackgroundImageFix"/>
<feBlend mode="normal" in="SourceGraphic" in2="BackgroundImageFix" result="shape"/>
<feGaussianBlur stdDeviation="4.59501" result="effect1_foregroundBlur_2021_10759"/>
</filter>
<filter id="filter3_f_2021_10759" x="-30.8267" y="20.7991" width="79.5695" height="29.3965" filterUnits="userSpaceOnUse" color-interpolation-filters="sRGB">
<feFlood flood-opacity="0" result="BackgroundImageFix"/>
<feBlend mode="normal" in="SourceGraphic" in2="BackgroundImageFix" result="shape"/>
<feGaussianBlur stdDeviation="4.59501" result="effect1_foregroundBlur_2021_10759"/>
</filter>
<filter id="filter4_f_2021_10759" x="-29.2955" y="21.9478" width="79.5695" height="29.3965" filterUnits="userSpaceOnUse" color-interpolation-filters="sRGB">
<feFlood flood-opacity="0" result="BackgroundImageFix"/>
<feBlend mode="normal" in="SourceGraphic" in2="BackgroundImageFix" result="shape"/>
<feGaussianBlur stdDeviation="4.59501" result="effect1_foregroundBlur_2021_10759"/>
</filter>
<filter id="filter5_f_2021_10759" x="29.9665" y="-17.1262" width="74.7403" height="58.845" filterUnits="userSpaceOnUse" color-interpolation-filters="sRGB">
<feFlood flood-opacity="0" result="BackgroundImageFix"/>
<feBlend mode="normal" in="SourceGraphic" in2="BackgroundImageFix" result="shape"/>
<feGaussianBlur stdDeviation="7.65835" result="effect1_foregroundBlur_2021_10759"/>
</filter>
<filter id="filter6_f_2021_10759" x="37.7572" y="3.05565" width="61.3703" height="25.3592" filterUnits="userSpaceOnUse" color-interpolation-filters="sRGB">
<feFlood flood-opacity="0" result="BackgroundImageFix"/>
<feBlend mode="normal" in="SourceGraphic" in2="BackgroundImageFix" result="shape"/>
<feGaussianBlur stdDeviation="4.59501" result="effect1_foregroundBlur_2021_10759"/>
</filter>
<filter id="filter7_f_2021_10759" x="37.7572" y="3.05565" width="61.3703" height="25.3592" filterUnits="userSpaceOnUse" color-interpolation-filters="sRGB">
<feFlood flood-opacity="0" result="BackgroundImageFix"/>
<feBlend mode="normal" in="SourceGraphic" in2="BackgroundImageFix" result="shape"/>
<feGaussianBlur stdDeviation="4.59501" result="effect1_foregroundBlur_2021_10759"/>
</filter>
<filter id="filter8_f_2021_10759" x="-13.42" y="-22.0781" width="56.0382" height="63.6417" filterUnits="userSpaceOnUse" color-interpolation-filters="sRGB">
<feFlood flood-opacity="0" result="BackgroundImageFix"/>
<feBlend mode="normal" in="SourceGraphic" in2="BackgroundImageFix" result="shape"/>
<feGaussianBlur stdDeviation="4.59501" result="effect1_foregroundBlur_2021_10759"/>
</filter>
<filter id="filter9_f_2021_10759" x="34.3261" y="-37.6378" width="54.8073" height="64.6383" filterUnits="userSpaceOnUse" color-interpolation-filters="sRGB">
<feFlood flood-opacity="0" result="BackgroundImageFix"/>
<feBlend mode="normal" in="SourceGraphic" in2="BackgroundImageFix" result="shape"/>
<feGaussianBlur stdDeviation="4.59501" result="effect1_foregroundBlur_2021_10759"/>
</filter>
<filter id="filter10_f_2021_10759" x="35.8144" y="-9.69411" width="38.5348" height="40.5685" filterUnits="userSpaceOnUse" color-interpolation-filters="sRGB">
<feFlood flood-opacity="0" result="BackgroundImageFix"/>
<feBlend mode="normal" in="SourceGraphic" in2="BackgroundImageFix" result="shape"/>
<feGaussianBlur stdDeviation="4.59501" result="effect1_foregroundBlur_2021_10759"/>
</filter>
<filter id="filter11_f_2021_10759" x="-15.0699" y="6.78056" width="54.8073" height="64.6383" filterUnits="userSpaceOnUse" color-interpolation-filters="sRGB">
<feFlood flood-opacity="0" result="BackgroundImageFix"/>
<feBlend mode="normal" in="SourceGraphic" in2="BackgroundImageFix" result="shape"/>
<feGaussianBlur stdDeviation="4.59501" result="effect1_foregroundBlur_2021_10759"/>
</filter>
<filter id="filter12_f_2021_10759" x="-15.0699" y="6.78056" width="54.8073" height="64.6383" filterUnits="userSpaceOnUse" color-interpolation-filters="sRGB">
<feFlood flood-opacity="0" result="BackgroundImageFix"/>
<feBlend mode="normal" in="SourceGraphic" in2="BackgroundImageFix" result="shape"/>
<feGaussianBlur stdDeviation="4.59501" result="effect1_foregroundBlur_2021_10759"/>
</filter>
<filter id="filter13_f_2021_10759" x="22.1952" y="-1.83364" width="54.8932" height="64.6796" filterUnits="userSpaceOnUse" color-interpolation-filters="sRGB">
<feFlood flood-opacity="0" result="BackgroundImageFix"/>
<feBlend mode="normal" in="SourceGraphic" in2="BackgroundImageFix" result="shape"/>
<feGaussianBlur stdDeviation="4.59501" result="effect1_foregroundBlur_2021_10759"/>
</filter>
<filter id="filter14_f_2021_10759" x="30.5126" y="7.23448" width="47.2047" height="53.0705" filterUnits="userSpaceOnUse" color-interpolation-filters="sRGB">
<feFlood flood-opacity="0" result="BackgroundImageFix"/>
<feBlend mode="normal" in="SourceGraphic" in2="BackgroundImageFix" result="shape"/>
<feGaussianBlur stdDeviation="4.59501" result="effect1_foregroundBlur_2021_10759"/>
</filter>
</defs>
</svg>

<svg xmlns="http://www.w3.org/2000/svg" width="82" height="47" fill="none" viewBox="0 0 82 47"><path fill="#6553ff" d="M40.155 45.705c-.663.845-2.02.375-2.02-.698V34.705a2.26 2.26 0 0 0-2.261-2.261H24.499c-.92 0-1.456-1.04-.92-1.788l7.478-10.47c1.07-1.497 0-3.578-1.841-3.578H15.45c-.92 0-1.456-1.04-.92-1.788l9.695-13.574c.213-.297.556-.474.92-.474h28.89c.92 0 1.456 1.04.92 1.788l-7.478 10.47c-1.07 1.497 0 3.578 1.841 3.578h11.375c.943 0 1.473 1.088.89 1.83l-21.425 27.27z"/><mask id="a" width="48" height="47" x="14" y="0" maskUnits="userSpaceOnUse" style="mask-type:alpha"><path fill="#833bff" d="M40.155 45.705c-.663.845-2.02.375-2.02-.698V34.705a2.26 2.26 0 0 0-2.261-2.261H24.499c-.92 0-1.456-1.04-.92-1.788l7.478-10.47c1.07-1.497 0-3.578-1.841-3.578H15.45c-.92 0-1.456-1.04-.92-1.788l9.695-13.574c.213-.297.556-.474.92-.474h28.89c.92 0 1.456 1.04.92 1.788l-7.478 10.47c-1.07 1.497 0 3.578 1.841 3.578h11.375c.943 0 1.473 1.088.89 1.83l-21.425 27.27z"/></mask><g mask="url(#a)"><g filter="url(#b)"><ellipse cx="5.507" cy="14.703" fill="#eee6ff" rx="5.507" ry="14.703" transform="rotate(89.814 -11.322 21.03)scale(1 -1)"/></g><g filter="url(#c)"><ellipse cx="10.398" cy="29.848" fill="#eee6ff" rx="10.398" ry="29.848" transform="rotate(89.814 -16.896 -8.27)scale(1 -1)"/></g><g filter="url(#d)"><ellipse cx="5.507" cy="30.483" fill="#560cff" rx="5.507" ry="30.483" transform="rotate(89.814 -19.19 -7.122)scale(1 -1)"/></g><g filter="url(#e)"><ellipse cx="5.507" cy="30.595" fill="#560cff" rx="5.507" ry="30.595" transform="rotate(89.814 -25.92 4.182)scale(1 -1)"/></g><g filter="url(#f)"><ellipse cx="5.507" cy="30.595" fill="#560cff" rx="5.507" ry="30.595" transform="rotate(89.814 -25.731 5.525)scale(1 -1)"/></g><g filter="url(#g)"><ellipse cx="14.07" cy="22.076" fill="#eee6ff" rx="14.07" ry="22.076" transform="rotate(93.35 31.245 55.576)scale(-1 1)"/></g><g filter="url(#h)"><ellipse cx="3.47" cy="21.498" fill="#560cff" rx="3.47" ry="21.498" transform="rotate(89.009 35.418 55.2)scale(-1 1)"/></g><g filter="url(#i)"><ellipse cx="3.47" cy="21.498" fill="#560cff" rx="3.47" ry="21.498" transform="rotate(89.009 35.418 55.2)scale(-1 1)"/></g><g filter="url(#j)"><ellipse cx="14.599" cy="9.743" fill="#560cff" rx="4.406" ry="29.104" transform="rotate(39.51 14.6 9.743)"/></g><g filter="url(#k)"><ellipse cx="61.73" cy="-5.319" fill="#560cff" rx="4.406" ry="29.104" transform="rotate(37.892 61.73 -5.319)"/></g><g filter="url(#l)"><ellipse cx="55.082" cy="10.59" fill="#00ffd0" rx="8.28" ry="12.491" transform="rotate(37.892 55.082 10.59)"/></g><g filter="url(#m)"><ellipse cx="12.334" cy="39.1" fill="#560cff" rx="4.406" ry="29.104" transform="rotate(37.892 12.334 39.1)"/></g><g filter="url(#n)"><ellipse cx="12.334" cy="39.1" fill="#560cff" rx="4.406" ry="29.104" transform="rotate(37.892 12.334 39.1)"/></g><g filter="url(#o)"><ellipse cx="49.642" cy="30.506" fill="#560cff" rx="4.682" ry="29.104" transform="rotate(37.892 49.642 30.506)"/></g><g filter="url(#p)"><ellipse cx="54.115" cy="33.77" fill="#00ffd0" rx="8.041" ry="21.063" transform="rotate(37.892 54.115 33.77)"/></g></g><path fill="#08060e" d="M6.92 0c-9.2 13.167-9.253 33.576 0 46.79h6.214c-9.25-13.214-9.196-33.623 0-46.79zm63.125 23.395h6.218C76.258 14.99 73.947 6.588 69.343 0h-6.215c4.601 6.588 6.915 14.99 6.92 23.395zm10.97 11.483h-6.234a44 44 0 0 0 1.06-5.268h-6.218a44 44 0 0 1-1.06 5.267H62.32a40 40 0 0 1-2.208 6.218h6.243a35.4 35.4 0 0 1-3.229 5.698h6.215a35.5 35.5 0 0 0 3.23-5.698h6.234a40 40 0 0 0 2.208-6.218z"/><defs><filter id="b" width="60.038" height="41.648" x="-5.554" y="16.92" color-interpolation-filters="sRGB" filterUnits="userSpaceOnUse"><feFlood flood-opacity="0" result="BackgroundImageFix"/><feBlend in="SourceGraphic" in2="BackgroundImageFix" result="shape"/><feGaussianBlur result="effect1_foregroundBlur_2021_10759" stdDeviation="7.658"/></filter><filter id="c" width="90.329" height="51.431" x="-40.394" y="-6.76" color-interpolation-filters="sRGB" filterUnits="userSpaceOnUse"><feFlood flood-opacity="0" result="BackgroundImageFix"/><feBlend in="SourceGraphic" in2="BackgroundImageFix" result="shape"/><feGaussianBlur result="effect1_foregroundBlur_2021_10759" stdDeviation="7.658"/></filter><filter id="d" width="79.346" height="29.396" x="-35.422" y="2.802" color-interpolation-filters="sRGB" filterUnits="userSpaceOnUse"><feFlood flood-opacity="0" result="BackgroundImageFix"/><feBlend in="SourceGraphic" in2="BackgroundImageFix" result="shape"/><feGaussianBlur result="effect1_foregroundBlur_2021_10759" stdDeviation="4.595"/></filter><filter id="e" width="79.57" height="29.396" x="-30.827" y="20.799" color-interpolation-filters="sRGB" filterUnits="userSpaceOnUse"><feFlood flood-opacity="0" result="BackgroundImageFix"/><feBlend in="SourceGraphic" in2="BackgroundImageFix" result="shape"/><feGaussianBlur result="effect1_foregroundBlur_2021_10759" stdDeviation="4.595"/></filter><filter id="f" width="79.57" height="29.396" x="-29.296" y="21.948" color-interpolation-filters="sRGB" filterUnits="userSpaceOnUse"><feFlood flood-opacity="0" result="BackgroundImageFix"/><feBlend in="SourceGraphic" in2="BackgroundImageFix" result="shape"/><feGaussianBlur result="effect1_foregroundBlur_2021_10759" stdDeviation="4.595"/></filter><filter id="g" width="74.74" height="58.845" x="29.966" y="-17.126" color-interpolation-filters="sRGB" filterUnits="userSpaceOnUse"><feFlood flood-opacity="0" result="BackgroundImageFix"/><feBlend in="SourceGraphic" in2="BackgroundImageFix" result="shape"/><feGaussianBlur result="effect1_foregroundBlur_2021_10759" stdDeviation="7.658"/></filter><filter id="h" width="61.37" height="25.359" x="37.757" y="3.056" color-interpolation-filters="sRGB" filterUnits="userSpaceOnUse"><feFlood flood-opacity="0" result="BackgroundImageFix"/><feBlend in="SourceGraphic" in2="BackgroundImageFix" result="shape"/><feGaussianBlur result="effect1_foregroundBlur_2021_10759" stdDeviation="4.595"/></filter><filter id="i" width="61.37" height="25.359" x="37.757" y="3.056" color-interpolation-filters="sRGB" filterUnits="userSpaceOnUse"><feFlood flood-opacity="0" result="BackgroundImageFix"/><feBlend in="SourceGraphic" in2="BackgroundImageFix" result="shape"/><feGaussianBlur result="effect1_foregroundBlur_2021_10759" stdDeviation="4.595"/></filter><filter id="j" width="56.038" height="63.642" x="-13.42" y="-22.078" color-interpolation-filters="sRGB" filterUnits="userSpaceOnUse"><feFlood flood-opacity="0" result="BackgroundImageFix"/><feBlend in="SourceGraphic" in2="BackgroundImageFix" result="shape"/><feGaussianBlur result="effect1_foregroundBlur_2021_10759" stdDeviation="4.595"/></filter><filter id="k" width="54.807" height="64.638" x="34.326" y="-37.638" color-interpolation-filters="sRGB" filterUnits="userSpaceOnUse"><feFlood flood-opacity="0" result="BackgroundImageFix"/><feBlend in="SourceGraphic" in2="BackgroundImageFix" result="shape"/><feGaussianBlur result="effect1_foregroundBlur_2021_10759" stdDeviation="4.595"/></filter><filter id="l" width="38.535" height="40.569" x="35.814" y="-9.694" color-interpolation-filters="sRGB" filterUnits="userSpaceOnUse"><feFlood flood-opacity="0" result="BackgroundImageFix"/><feBlend in="SourceGraphic" in2="BackgroundImageFix" result="shape"/><feGaussianBlur result="effect1_foregroundBlur_2021_10759" stdDeviation="4.595"/></filter><filter id="m" width="54.807" height="64.638" x="-15.07" y="6.781" color-interpolation-filters="sRGB" filterUnits="userSpaceOnUse"><feFlood flood-opacity="0" result="BackgroundImageFix"/><feBlend in="SourceGraphic" in2="BackgroundImageFix" result="shape"/><feGaussianBlur result="effect1_foregroundBlur_2021_10759" stdDeviation="4.595"/></filter><filter id="n" width="54.807" height="64.638" x="-15.07" y="6.781" color-interpolation-filters="sRGB" filterUnits="userSpaceOnUse"><feFlood flood-opacity="0" result="BackgroundImageFix"/><feBlend in="SourceGraphic" in2="BackgroundImageFix" result="shape"/><feGaussianBlur result="effect1_foregroundBlur_2021_10759" stdDeviation="4.595"/></filter><filter id="o" width="54.893" height="64.68" x="22.195" y="-1.834" color-interpolation-filters="sRGB" filterUnits="userSpaceOnUse"><feFlood flood-opacity="0" result="BackgroundImageFix"/><feBlend in="SourceGraphic" in2="BackgroundImageFix" result="shape"/><feGaussianBlur result="effect1_foregroundBlur_2021_10759" stdDeviation="4.595"/></filter><filter id="p" width="47.205" height="53.071" x="30.513" y="7.234" color-interpolation-filters="sRGB" filterUnits="userSpaceOnUse"><feFlood flood-opacity="0" result="BackgroundImageFix"/><feBlend in="SourceGraphic" in2="BackgroundImageFix" result="shape"/><feGaussianBlur result="effect1_foregroundBlur_2021_10759" stdDeviation="4.595"/></filter></defs></svg>
